svg/dribbble-circle.svg

<svg xmlns="http://www.w3.org/2000/svg" viewBox="0 0 64 64" enable-background="new 0 0 64 64"><style type="text/css">.st0{fill:#343434;}</style><title>dribbble-circle</title><desc>Created with Sketch.</desc><path class="st0" d="M32 0c-17.7 0-32 14.3-32 32s14.3 32 32 32 32-14.3 32-32-14.3-32-32-32zm0 51c-10.5 0-19-8.5-19-19s8.5-19 19-19 19 8.5 19 19-8.5 19-19 19zM35.7 28.1c.5.9.9 2 1.4 3 1.4-.2 2.8-.3 4.2-.3 2.4 0 4.7.3 6.8 1-.1-3.7-1.4-7.2-3.5-9.9-.1 0-2.4 3.5-8.9 6.2zM42.6 20c-2.8-2.6-6.6-4.1-10.6-4.1-1.3 0-2.6.2-3.7.5 0 0 2.9 3.4 6 9.1 3.1-1.2 6.2-3 8.3-5.5zM30.9 26.6c-3-5.5-5.8-9.1-5.8-9.1-4.4 2.2-7.7 6.2-8.8 11.1 0 0 7.2.1 14.6-2zM33.6 32c-.4-.9-.9-1.8-1.2-2.6-4.1 1.3-9.5 2.2-16.4 2.2v.4c0 4.1 1.6 7.9 4.1 10.7 3-5 7.8-8.9 13.5-10.7zM22.3 44.7c2.7 2 6 3.3 9.7 3.3 2.2 0 4.3-.4 6.2-1.2-.6-4.3-1.9-8.4-3.4-12.1-5.4 1.6-9.8 5.2-12.5 10zM38.1 33.9c1.2 3.5 2.3 7.3 2.8 11.4 3.5-2.4 6.1-6.2 6.9-10.5-2.1-.7-4.3-1-6.6-1-1.1-.1-2.1 0-3.1.1z"/></svg>

<?xml version="1.0" encoding="utf-8"?>
<!-- Generator: Adobe Illustrator 21.0.0, SVG Export Plug-In . SVG Version: 6.00 Build 0)  -->
<svg version="1.1" id="Layer_1" xmlns="http://www.w3.org/2000/svg" xmlns:xlink="http://www.w3.org/1999/xlink" x="0px" y="0px"
	 viewBox="0 0 64 64" style="enable-background:new 0 0 64 64;" xml:space="preserve">
<style type="text/css">
	.st0{fill:#343434;}
</style>
<title>dribbble-circle</title>
<desc>Created with Sketch.</desc>
<g>
	<path class="st0" d="M32,0C14.3,0,0,14.3,0,32c0,17.7,14.3,32,32,32s32-14.3,32-32C64,14.3,49.7,0,32,0z M32,51
		c-10.5,0-19-8.5-19-19s8.5-19,19-19s19,8.5,19,19S42.5,51,32,51z"/>
	<path class="st0" d="M35.7,28.1c0.5,0.9,0.9,2,1.4,3c1.4-0.2,2.8-0.3,4.2-0.3c2.4,0,4.7,0.3,6.8,1c-0.1-3.7-1.4-7.2-3.5-9.9
		C44.5,21.9,42.2,25.4,35.7,28.1z"/>
	<path class="st0" d="M42.6,20c-2.8-2.6-6.6-4.1-10.6-4.1c-1.3,0-2.6,0.2-3.7,0.5c0,0,2.9,3.4,6,9.1C37.4,24.3,40.5,22.5,42.6,20z"
		/>
	<path class="st0" d="M30.9,26.6c-3-5.5-5.8-9.1-5.8-9.1c-4.4,2.2-7.7,6.2-8.8,11.1C16.3,28.6,23.5,28.7,30.9,26.6z"/>
	<path class="st0" d="M33.6,32c-0.4-0.9-0.9-1.8-1.2-2.6c-4.1,1.3-9.5,2.2-16.4,2.2V32c0,4.1,1.6,7.9,4.1,10.7
		C23.1,37.7,27.9,33.8,33.6,32z"/>
	<path class="st0" d="M22.3,44.7c2.7,2,6,3.3,9.7,3.3c2.2,0,4.3-0.4,6.2-1.2c-0.6-4.3-1.9-8.4-3.4-12.1C29.4,36.3,25,39.9,22.3,44.7
		z"/>
	<path class="st0" d="M38.1,33.9c1.2,3.5,2.3,7.3,2.8,11.4c3.5-2.4,6.1-6.2,6.9-10.5c-2.1-0.7-4.3-1-6.6-1
		C40.1,33.7,39.1,33.8,38.1,33.9z"/>
</g>
</svg>
